svgs/themed_icon_calendar_4.svg

<svg height="192" width="192" xmlns="http://www.w3.org/2000/svg"><path d="M146 30H46c-8.837 0-16 7.163-16 16v100c0 8.837 7.163 16 16 16h75.373a16 16 0 0 0 11.313-4.686l24.628-24.628A16 16 0 0 0 162 121.373V46c0-8.837-7.163-16-16-16Z" stroke="#000" stroke-width="12" fill="none"/><path d="M103.934 120.648c-1.776 0-3.144-.48-4.104-1.44s-1.44-2.352-1.44-4.176v-4.104H82.262c-1.776 0-3.192-.384-4.248-1.152-1.056-.816-1.584-2.04-1.584-3.672 0-.96.216-1.92.648-2.88.432-1.008 1.2-2.28 2.304-3.816L98.03 72.264c.816-1.248 1.704-2.16 2.664-2.736 1.008-.624 2.184-.936 3.528-.936 1.584 0 2.832.48 3.744 1.44.912.912 1.368 2.304 1.368 4.176v27.936h2.664c3.216 0 4.824 1.464 4.824 4.392 0 2.928-1.608 4.392-4.824 4.392h-2.664v4.104c0 1.824-.48 3.216-1.44 4.176-.912.96-2.232 1.44-3.96 1.44Zm-5.544-18.504V85.368l-11.376 16.776H98.39Z"/></svg>

<?xml version="1.0" encoding="UTF-8" standalone="no"?><svg xmlns:android="http://schemas.android.com/apk/res/android" height="192" width="192" xmlns="http://www.w3.org/2000/svg">
  <path d="M146,30H46C37.163,30 30,37.163 30,46V146C30,154.837 37.163,162 46,162H121.373C125.616,162 129.686,160.314 132.686,157.314L157.314,132.686C160.314,129.686 162,125.616 162,121.373V46C162,37.163 154.837,30 146,30Z" fill="#000000" fill-opacity="0.0" stroke="#000000" stroke-width="12"/>
  <path d="M103.934,120.648C102.158,120.648 100.79,120.168 99.83,119.208C98.87,118.248 98.39,116.856 98.39,115.032V110.928H82.262C80.486,110.928 79.07,110.544 78.014,109.776C76.958,108.96 76.43,107.736 76.43,106.104C76.43,105.144 76.646,104.184 77.078,103.224C77.51,102.216 78.278,100.944 79.382,99.408L98.03,72.264C98.846,71.016 99.734,70.104 100.694,69.528C101.702,68.904 102.878,68.592 104.222,68.592C105.806,68.592 107.054,69.072 107.966,70.032C108.878,70.944 109.334,72.336 109.334,74.208V102.144H111.998C115.214,102.144 116.822,103.608 116.822,106.536C116.822,109.464 115.214,110.928 111.998,110.928H109.334V115.032C109.334,116.856 108.854,118.248 107.894,119.208C106.982,120.168 105.662,120.648 103.934,120.648ZM98.39,102.144V85.368L87.014,102.144H98.39Z" fill="#000000"/>
</svg>
